images/preferences/5.svg

<svg width="52" height="52" viewBox="0 0 52 52" fill="none" xmlns="http://www.w3.org/2000/svg">
<g clip-path="url(#clip0)">
<path d="M51.7201 21.5561L42.5885 8.56172C41.9794 7.69495 40.6938 7.69679 40.086 8.56172L36.6107 13.5072C32.6761 8.42336 26.707 5.56152 20.4382 5.56152C9.16862 5.56152 0 14.7301 0 25.9999C0 37.2696 9.16862 46.4382 20.4383 46.4382C25.6898 46.4382 30.6485 44.4365 34.3916 40.934L34.2971 42.4644C34.2427 43.3445 34.9427 44.088 35.8235 44.088H46.8511C47.7329 44.088 48.4318 43.3435 48.3775 42.4644L47.2348 23.9647H50.469C51.7067 23.9647 52.4305 22.567 51.7201 21.5561ZM20.4383 43.3795C10.8552 43.3795 3.05872 35.583 3.05872 25.9999C3.05872 16.4168 10.8552 8.62024 20.4383 8.62024C26.2248 8.62024 31.5055 11.4165 34.7555 16.1472L30.9545 21.5561C30.2428 22.5689 30.9703 23.9648 32.2057 23.9648H35.4399L34.7008 35.929C31.4455 40.6012 26.1446 43.3795 20.4383 43.3795ZM45.608 20.906C44.7261 20.906 44.0273 21.6505 44.0815 22.5296L45.2244 41.0293H37.4504L38.5933 22.5296C38.6476 21.6495 37.9477 20.906 37.0668 20.906H35.1499C36.0233 19.6631 40.4621 13.3465 41.3375 12.101L47.525 20.906H45.608Z" fill="url(#paint0_linear)"/>
<path d="M22.3669 24.4706H18.5063C17.4378 24.4706 16.5685 23.6014 16.5685 22.5329C16.5685 21.4608 17.4364 20.5952 18.5059 20.5952C18.5146 20.5952 18.5232 20.5953 18.5319 20.5953H22.2302C23.1399 20.6038 24.0192 21.1008 24.5247 21.8911L24.5442 21.9217C24.9983 22.634 25.9437 22.8434 26.6559 22.3893C27.3681 21.9353 27.5775 20.9899 27.1236 20.2776L27.1027 20.2448C26.0364 18.5781 24.2968 17.5364 21.9659 17.5364V15.7022C21.9659 14.8575 21.2811 14.1729 20.4366 14.1729C19.5921 14.1729 18.9073 14.8576 18.9073 15.7022V17.5364C17.4458 17.5364 16.1804 17.8015 14.9863 18.9868C14.0341 19.932 13.5098 21.1913 13.5098 22.5328C13.5098 25.2879 15.7513 27.5292 18.5063 27.5292H22.3669C23.4354 27.5292 24.3046 28.3984 24.3046 29.4669C24.3046 30.4975 23.4882 31.4045 22.3413 31.4045H18.306C17.5113 31.3971 16.749 31.0249 16.2141 30.3829C15.6734 29.7338 14.7091 29.6462 14.0602 30.1867C13.4113 30.7274 13.3235 31.6918 13.8641 32.3406C15.2953 34.0587 16.961 34.4633 18.9072 34.4633V36.2975C18.9072 37.1422 19.592 37.8269 20.4365 37.8269C21.281 37.8269 21.9658 37.1421 21.9658 36.2975V34.4633C25.5279 34.4633 27.3632 31.9539 27.3632 29.4669C27.3634 26.7119 25.122 24.4706 22.3669 24.4706Z" fill="url(#paint1_linear)"/>
</g>
<defs>
<linearGradient id="paint0_linear" x1="-6.5" y1="-0.835665" x2="44.9973" y2="74.7784" gradientUnits="userSpaceOnUse">
<stop stop-color="#1C2D5A"/>
<stop offset="1" stop-color="#4FC3DD" stop-opacity="0.96"/>
</linearGradient>
<linearGradient id="paint1_linear" x1="11.7781" y1="10.471" x2="41.496" y2="30.5606" gradientUnits="userSpaceOnUse">
<stop stop-color="#1C2D5A"/>
<stop offset="1" stop-color="#4FC3DD" stop-opacity="0.96"/>
</linearGradient>
<clipPath id="clip0">
<rect width="52" height="52" fill="white"/>
</clipPath>
</defs>
</svg>

<svg width="52" height="52" fill="none" xmlns="http://www.w3.org/2000/svg"><g clip-path="url(#a)"><path d="M51.72 21.556 42.59 8.562a1.53 1.53 0 0 0-2.503 0l-3.475 4.945a20.401 20.401 0 0 0-16.173-7.945C9.168 5.562 0 14.73 0 26s9.169 20.438 20.438 20.438a20.39 20.39 0 0 0 13.954-5.504l-.095 1.53a1.53 1.53 0 0 0 1.527 1.624H46.85a1.53 1.53 0 0 0 1.526-1.624l-1.142-18.5h3.234c1.238 0 1.962-1.397 1.251-2.408ZM20.438 43.38c-9.583 0-17.38-7.796-17.38-17.38 0-9.582 7.797-17.379 17.38-17.379 5.787 0 11.068 2.796 14.317 7.527l-3.8 5.41c-.712 1.012.015 2.408 1.25 2.408h3.235l-.74 11.964a17.348 17.348 0 0 1-14.262 7.45Zm25.17-22.473a1.53 1.53 0 0 0-1.526 1.624l1.142 18.5H37.45l1.143-18.5a1.53 1.53 0 0 0-1.526-1.624H35.15l6.188-8.805 6.187 8.805h-1.917Z" fill="url(#b)"/><path d="M22.367 24.47h-3.86a1.937 1.937 0 1 1 0-3.875h3.723c.91.009 1.79.506 2.295 1.296l.02.03a1.53 1.53 0 1 0 2.579-1.643l-.021-.033c-1.067-1.667-2.806-2.709-5.137-2.709v-1.834a1.53 1.53 0 0 0-3.059 0v1.834c-1.461 0-2.727.265-3.92 1.45a4.962 4.962 0 0 0-1.477 3.547 5.002 5.002 0 0 0 4.996 4.996h3.86a1.94 1.94 0 0 1 1.939 1.938c0 1.03-.817 1.938-1.964 1.938h-4.035c-.795-.008-1.557-.38-2.092-1.022a1.53 1.53 0 1 0-2.35 1.958c1.431 1.718 3.097 2.122 5.043 2.122v1.834a1.53 1.53 0 1 0 3.059 0v-1.834c3.562 0 5.397-2.51 5.397-4.996a5.002 5.002 0 0 0-4.996-4.996Z" fill="url(#c)"/></g><defs><linearGradient id="b" x1="-6.5" y1="-.836" x2="44.997" y2="74.778" gradientUnits="userSpaceOnUse"><stop stop-color="#1C2D5A"/><stop offset="1" stop-color="#4FC3DD" stop-opacity=".96"/></linearGradient><linearGradient id="c" x1="11.778" y1="10.471" x2="41.496" y2="30.561" gradientUnits="userSpaceOnUse"><stop stop-color="#1C2D5A"/><stop offset="1" stop-color="#4FC3DD" stop-opacity=".96"/></linearGradient><clipPath id="a"><path fill="#fff" d="M0 0h52v52H0z"/></clipPath></defs></svg>
